X:226
T:The House on the Hill
T:Pat Molloy's
C:Martin Mulhaire
R:reel
M:4/4
L:1/8
S:Teada - Teada
K:G
d2ge dBGB | dcBc ABGE | D2B,D GABc | dgg2 fgag |
bgg2 dBGB | dcBc ABGE | D2B,D G,B,DG | FGAc BGG2 ::
dBBA GBdg | bgge d3B | c2ec BcdB | AdBG ABcA |
bgga agfa | g3e dBGB | c2ec gcec | BAGF GABc :|
